!!!!SEGMENT: pl-kk--kk-i-7--104_gorczycki-grzegorz-gerwazy--stella-caeli-exstirpavit.krn
!!!cenid: 16xx:943
!!!COM: Gorczycki, Grzegorz Gerwazy
!!!COM-rismID: pe30009207
!!!CDT: ~1666-1734/04/30
!!!CNT: Polish
!!!OTL: Stella caeli exstirpavit
!!!PDT:
!!!AGN: Sacred
!!!SMS-siglum: PL-Kk
!!!SMS-shelfmark: Kk.I.7
!!!SMS-shelfwork: 104 W
!!!SMS-variant:
!!!SMS-altvar:
!!!NIFC-rismSourceID: 300258181
!!!NIFC-islandoraID: pl-kk:1956
!!!URL-pdf-islandora: https://repozytorium.nifc.pl/islandora/object/pl-kk%3A1956/datastream/PDF/view
!!!URL-scan: https://polish.musicsources.pl/pl/lokalizacje/galeria/rekopisy/6140 @EN{Scan on Polish Music Sources Website} @PL{Skany w portalu Dziedzictwo Muzyki Polskiej w otwartym dostępie}
!!!ONB-nifc: UWAGA: C (skan 0079, s.150-151 ), A (0157, s.134-135), T(0244, s.150-151), B(0331, s.146). Następny utwór: Omni die dic Mariae
!!!AIN: 1 alto 1 bass 1 soprn 1 tenor
!!!key:
**kern	**fb	**text	**text	**text	**text	**text	**kern	**text	**text	**text	**text	**text	**kern	**text	**text	**text	**text	**text	**kern	**text	**text	**text	**text	**text
*part4	*	*part4	*part4	*part4	*part4	*part4	*part3	*part3	*part3	*part3	*part3	*part3	*part2	*part2	*part2	*part2	*part2	*part2	*part1	*part1	*part1	*part1	*part1	*part1
*staff4	*	*staff4	*staff4	*staff4	*staff4	*staff4	*staff3	*staff3	*staff3	*staff3	*staff3	*staff3	*staff2	*staff2	*staff2	*staff2	*staff2	*staff2	*staff1	*staff1	*staff1	*staff1	*staff1	*staff1
*Ibass	*	*	*	*	*	*	*Itenor	*	*	*	*	*	*Ialto	*	*	*	*	*	*Isoprn	*	*	*	*	*
*I"BASSVS.	*	*	*	*	*	*	*I"TENOR.	*	*	*	*	*	*I"ALTVS.	*	*	*	*	*	*I"CANTVS.	*	*	*	*	*
*I'B	*	*	*	*	*	*	*I'T	*	*	*	*	*	*I'A	*	*	*	*	*	*I'S	*	*	*	*	*
*clefF4	*	*	*	*	*	*	*clefC4	*	*	*	*	*	*clefC3	*	*	*	*	*	*clefC4	*	*	*	*	*
*k[b-]	*	*	*	*	*	*	*k[b-]	*	*	*	*	*	*k[b-]	*	*	*	*	*	*k[b-]	*	*	*	*	*
*F:	*	*	*	*	*	*	*F:	*	*	*	*	*	*F:	*	*	*	*	*	*F:	*	*	*	*	*
*M3/1	*	*	*	*	*	*	*M3/1	*	*	*	*	*	*M3/1	*	*	*	*	*	*M3/1	*	*	*	*	*
*>[A,B,B]	*	*	*	*	*	*	*>[A,B,B]	*	*	*	*	*	*>[A,B,B]	*	*	*	*	*	*>[A,B,B]	*	*	*	*	*
=1-	=1-	=1-	=1-	=1-	=1-	=1-	=1-	=1-	=1-	=1-	=1-	=1-	=1-	=1-	=1-	=1-	=1-	=1-	=1-	=1-	=1-	=1-	=1-	=1-
*>A	*	*	*	*	*	*	*>A	*	*	*	*	*	*>A	*	*	*	*	*	*>A	*	*	*	*	*
*	*above	*	*	*	*	*	*	*	*	*	*	*	*	*	*	*	*	*	*	*	*	*	*	*
!LO:TX:a:t=P:problem=w źródle znaki przykluczowe B- BB-	!	!	!	!	!	!	!	!	!	!	!	!	!	!	!	!	!	!	!	!	!	!	!	!
!LO:TX:a:i:t=De B V. M. Contra Pestem	!	!	!	!	!	!	!LO:TX:a:i:t=De B. V. M. contra Pestem	!	!	!	!	!	!LO:TX:a:i:t=De B. V. M. contra Pestem	!	!	!	!	!	!LO:TX:a:i:t=De B. V. M. contra Pestem	!	!	!	!	!
0F	.	Stel-	Ip-	Glo-	Me-	Au-	0c	Stel-	Ip-	Glo-	Me-	Au-	0f	Stel-	Ip-	Glo-	Me-	Au-	0A	Stel-	Ip-	Glo-	Me-	Au-
!LO:TX:t=P:problem=kreska pseudotaktowa	!	!	!	!	!	!	!	!	!	!	!	!	!	!	!	!	!	!	!	!	!	!	!	!
1D	X 6/	-la	-sa	-ri-	-di-	-di	1d	-la	-sa	-ri-	-di-	-di	1f	-la	-sa	-ri-	-di-	-di	1Bn	-la	-sa	-ri-	-di-	-di
=2-	=2-	=2-	=2-	=2-	=2-	=2-	=2-	=2-	=2-	=2-	=2-	=2-	=2-	=2-	=2-	=2-	=2-	=2-	=2-	=2-	=2-	=2-	=2-	=2-
0C	5 4	Cae-	Stel-	-o-	-ci-	nos	0G	cae-	Stel-	-o-	-ci-	nos	0f	Cae-	stel-	-o-	-ci-	nos	0c	Cae-	Stel-	-o-	-ci-	nos
.	X 3	.	.	.	.	.	.	.	.	.	.	.	.	.	.	.	.	.	.	.	.	.	.	.
!LO:TX:t=P:problem=kreska pseudotaktowa	!	!	!	!	!	!	!	!	!	!	!	!	!	!	!	!	!	!	!LO:TX:t=P:problem=kreska pseudotaktowa	!	!	!	!	!
1C	.	-li	-la	-sa	-na	nam	1c	-li	-la	-sa	-na	nam	1e	-li	-la	-sa	-na	nam	1c	-li	-la	-sa	-na	nam
=3-	=3-	=3-	=3-	=3-	=3-	=3-	=3-	=3-	=3-	=3-	=3-	=3-	=3-	=3-	=3-	=3-	=3-	=3-	=3-	=3-	=3-	=3-	=3-	=3-
0G	5 4	ex-	nunc	Stel-	Chris-	Te	0c	ex-	nunc	Stel-	Chris-	Te	0g	ex-	nunc	Stel-	Chris-	Te	0d	ex-	nunc	Stel-	Chris-	Te
*	*reverse	*	*	*	*	*	*	*	*	*	*	*	*	*	*	*	*	*	*	*	*	*	*	*
1GG	X 3n	-tir-	di-	-la	-tia-	Fi-	1Bn	-tir-	di-	-la	-tia-	Fi-	1g	-tir-	di-	-la	-tia-	Fi-	1d	-tir-	di-	-la	-tia-	Fi-
=4-	=4-	=4-	=4-	=4-	=4-	=4-	=4-	=4-	=4-	=4-	=4-	=4-	=4-	=4-	=4-	=4-	=4-	=4-	=4-	=4-	=4-	=4-	=4-	=4-
0C	X n	-pa-	-gne-	ma-	-na	-li-	0c	-pa-	-gne-	ma-	-na	-li-	0e	-pa-	-gne-	ma-	-na	-li-	0c	-pa-	-gne-	ma-	-na	-li-
!LO:TX:t=P:problem=kreska pseudotaktowa	!	!	!	!	!	!	!LO:TX:t=P:problem=kreska pseudotaktowa	!	!	!	!	!	!LO:TX:t=P:problem=kreska pseudotaktowa	!	!	!	!	!	!LO:TX:t=P:problem=kreska pseudotaktowa	!	!	!	!	!
1C	.	-vit	-tur	-ris	sa-	-us	1G	-vit	-tur	-ris	sa-	-us	1e	-vit	-tur	-ris	sa-	-us	1c	-vit	-tur	-ris	sa-	-us
=5-	=5-	=5-	=5-	=5-	=5-	=5-	=5-	=5-	=5-	=5-	=5-	=5-	=5-	=5-	=5-	=5-	=5-	=5-	=5-	=5-	=5-	=5-	=5-	=5-
0F	.	quae	si-	sum-	-nos	ni-	0A	quae	si-	sum-	-nos	ni-	0f	quae	si-	sum-	-nos	ni-	0A	quae	si-	sum-	-nos	ni-
1E	X 6	la-	-de-	-mis	ser-	-hil	1c	la-	-de-	-mis	ser-	-hil	1g	la-	-de-	-mis	ser-	-hil	1G	la-	-de-	-mis	ser-	-hil
=6-	=6-	=6-	=6-	=6-	=6-	=6-	=6-	=6-	=6-	=6-	=6-	=6-	=6-	=6-	=6-	=6-	=6-	=6-	=6-	=6-	=6-	=6-	=6-	=6-
0F	.	-cta-	-ra	di-	-va,	ne-	0c	-cta-	-ra	di-	-va,	ne-	0f	-cta-	-ra	di-	-va,	ne-	0A	-cta-	-ra	di-	-va,	ne-
!LO:TX:t=P:problem=kreska pseudotaktowa	!	!	!	!	!	!	!	!	!	!	!	!	!	!	!	!	!	!	!LO:TX:t=P:problem=kreska pseudotaktowa	!	!	!	!	!
1A	X 6	-vit	com-	-gna	ae-	-gans	1A	-vit	com-	-gna	ae-	-gans	1f	-vit	com-	-gna	ae-	-gans	1c	-vit	com-	-gna	ae-	-gans
=7-	=7-	=7-	=7-	=7-	=7-	=7-	=7-	=7-	=7-	=7-	=7-	=7-	=7-	=7-	=7-	=7-	=7-	=7-	=7-	=7-	=7-	=7-	=7-	=7-
0G	5 4	Do-	-pe-	lau-	-gros	ho-	0d	Do-	-pes-	lau-	-gros	ho-	0g	Do-	-pes-	lau-	-gros	ho-	0c	Do-	-pes-	lau-	-gros	ho-
.	X 3	.	.	.	.	.	.	.	.	.	.	.	.	.	.	.	.	.	.	.	.	.	.	.
!	!	!	!	!	!	!	!	!	!	!	!	!	!	!	!	!	!	!	!LO:N:acc=#	!	!	!	!	!
1G	X n	-mi-	-sce-	-di-	sa-	-no-	1d	-mi-	-ce-	-di-	sa-	-no-	1g	-mi-	-ce-	-di-	sa-	-no-	1Bn	-mi-	-ce-	-di-	sa-	-no-
=8-	=8-	=8-	=8-	=8-	=8-	=8-	=8-	=8-	=8-	=8-	=8-	=8-	=8-	=8-	=8-	=8-	=8-	=8-	=8-	=8-	=8-	=8-	=8-	=8-
0.C	.	-num	-re:	-b(us):	-na:	-rat:	0.c	-num:	-re:	-bus:	-na:	-rat:	0.e	-num:	-re:	-bus	-na,	-rat;	0.c	-num:	-re:	-bus:	-na:	-rat:
=9!|:-	=9!|:-	=9!|:-	=9!|:-	=9!|:-	=9!|:-	=9!|:-	=9!|:-	=9!|:-	=9!|:-	=9!|:-	=9!|:-	=9!|:-	=9!|:-	=9!|:-	=9!|:-	=9!|:-	=9!|:-	=9!|:-	=9!|:-	=9!|:-	=9!|:-	=9!|:-	=9!|:-	=9!|:-
*>B	*	*	*	*	*	*	*>B	*	*	*	*	*	*>B	*	*	*	*	*	*>B	*	*	*	*	*
!LO:TX:a:i:t=repetat.	!	!	!	!	!	!	!	!	!	!	!	!	!	!	!	!	!	!	!	!	!	!	!	!
0C	.	Mor-	Quo-	Nos	Quod	Sal-	0c	Mor-	Quo-	Nos	Quod	Sal-	0e	Mor-	Quo-	Nos	Quod	Sal-	0G	Mor-	Quo-	Nos	Quod	Sal-
!LO:TX:t=P:problem=kreska pseudotaktowa	!	!	!	!	!	!	!	!	!	!	!	!	!	!	!	!	!	!	!LO:TX:t=P:problem=kreska pseudotaktowa	!	!	!	!	!
1AA	X 6	-tis	-rum	à	non	-va	1c	-tis	-rum	à	non	-va	1f	-tis	-rum	à	non	-va	1A	-tis	-rum	à	non	-va
=10-	=10-	=10-	=10-	=10-	=10-	=10-	=10-	=10-	=10-	=10-	=10-	=10-	=10-	=10-	=10-	=10-	=10-	=10-	=10-	=10-	=10-	=10-	=10-	=10-
0GG	X -	pes-	bel-	pes-	va-	nos	(>1B-X	pes-	bel-	pes-	va-	nos	0g	pes-	bel-	pes-	va-	nos	0B-X	pes-	bel-	pes-	va-	nos
.	.	.	.	.	.	.	1d)	.	.	.	.	.	.	.	.	.	.	.	.	.	.	.	.	.
*	*	*	*	*	*	*	*custos:A	*	*	*	*	*	*	*	*	*	*	*	*	*	*	*	*	*
*	*	*	*	*	*	*	*	*	*	*	*	*	*	*	*	*	*	*	*custos:c	*	*	*	*	*
!	!	!	!	!	!	!	!	!	!	!	!	!	!	!	!	!	!	!	!LO:TX:t=P:problem=kreska pseudotaktowa	!	!	!	!	!
!LO:TX:t=P:problem=kreska pseudotaktowa	!	!	!	!	!	!	!LO:TX:t=P:problem=kreska pseudotaktowa	!	!	!	!	!	!	!	!	!	!	!	!	!	!	!	!	!
1GG	.	-tem	-la	-te	-let	Je-	1G	-tem	-la	-te	-let	Je-	1d	-tem	-la	-te	-let	Je-	1B-	-tem	-la	-te	-let	Je-
=11-	=11-	=11-	=11-	=11-	=11-	=11-	=11-	=11-	=11-	=11-	=11-	=11-	=11-	=11-	=11-	=11-	=11-	=11-	=11-	=11-	=11-	=11-	=11-	=11-
1.FF	.	quam	ple-	tu-	vis	-su	0A	quam	ple-	tu-	vis	-su	0f	quam	ple-	tu-	Vis	-su	0c	quam	ple-	tu-	vis	-su
2GG/	.	.	-bem	-e	hu-	pro	.	.	.	.	.	.	.	.	.	.	.	.	.	.	.	.	.	.
(<2AA/	X 6	.	.	.	.	.	1F	plan-	-bem	-e	hu-	pro	1f	plan-	-bem	-e	hu-	pro	1A	plan-	-bem	-e	hu-	pro
2BB-/)	X 5	plan-	.	.	.	.	.	.	.	.	.	.	.	.	.	.	.	.	.	.	.	.	.	.
=12-	=12-	=12-	=12-	=12-	=12-	=12-	=12-	=12-	=12-	=12-	=12-	=12-	=12-	=12-	=12-	=12-	=12-	=12-	=12-	=12-	=12-	=12-	=12-	=12-
0C	X 4	-ta-	cae-	a-	-ma-	-qui-	0c	-ta-	cae-	a-	-ma-	qui-	0f	-ta-	cae-	a-	-ma-	qui-	0G	-ta-	cae-	a-	-ma-	qui-
!LO:TX:t=P:problem=kreska pseudotaktowa	!	!	!	!	!	!	!LO:TX:t=P:problem=kreska pseudotaktowa	!	!	!	!	!	!LO:TX:t=P:problem=kreska pseudotaktowa	!	!	!	!	!	!LO:TX:t=P:problem=kreska pseudotaktowa	!	!	!	!	!
1C	X 3	-vit	-dunt	-ris,	-na	-bus	1c	-vit	-dunt	-ris,	-na	-bus	1e	-vit	-dunt	-ris	-na	-bus	1G	-vit	-dunt,	-ris,	-na	-bus
=13-	=13-	=13-	=13-	=13-	=13-	=13-	=13-	=13-	=13-	=13-	=13-	=13-	=13-	=13-	=13-	=13-	=13-	=13-	=13-	=13-	=13-	=13-	=13-	=13-
0F	.	pri-	di-	et	sit	Vir-	0c	pri-	di-	et	sit	Vir-	0f	pri-	di-	et	sit	Vir-	0A	pri-	di-	et	sit	Vir-
*custos:BB-	*	*	*	*	*	*	*	*	*	*	*	*	*	*	*	*	*	*	*	*	*	*	*	*
!	!	!	!	!	!	!	!	!	!	!	!	!	!	!	!	!	!	!	!LO:TX:t=P:problem=kreska pseudotaktowa	!	!	!	!	!
!LO:SIC:v:l:s=-rae	!	!	!	!	!	!	!	!	!	!	!	!	!	!	!	!	!	!	!	!	!	!	!	!
1F	.	-mus	-ro	à	in	-go	1c	-mus	-ro	à	in	-go	1f	-mus	-ro	à	in	-go	1c	-mus	-ro	à	in	-go
!LO:LB:g=original	!	!	!	!	!	!	!	!	!	!	!	!	!	!	!	!	!	!	!	!	!	!	!	!
=14-	=14-	=14-	=14-	=14-	=14-	=14-	=14-	=14-	=14-	=14-	=14-	=14-	=14-	=14-	=14-	=14-	=14-	=14-	=14-	=14-	=14-	=14-	=14-	=14-
(<2BB-X/	.	Pa-	mor-	Mun-	Tu-	Ma-	0d	Pa-	mor-	mun-	Tu-	Ma-	0f	Pa-	mor-	mun-	Tu-	Ma-	0B-X	Pa-	mor-	mun-	tu-	Ma-
2C/)	.	.	.	.	.	.	.	.	.	.	.	.	.	.	.	.	.	.	.	.	.	.	.	.
*2\right	*	*	*	*	*	*	*	*	*	*	*	*	*	*	*	*	*	*	*	*	*	*	*	*
2D\	X 6	-rens	-tis	-di	-o	-ter	.	.	.	.	.	.	.	.	.	.	.	.	.	.	.	.	.	.
2E\	X 5	.	.	.	.	.	.	.	.	.	.	.	.	.	.	.	.	.	.	.	.	.	.	.
!LO:TX:t=P:problem=kreska pseudotaktowa	!	!	!	!	!	!	!	!	!	!	!	!	!	!	!	!	!	!	!LO:TX:t=P:problem=kreska pseudotaktowa	!	!	!	!	!
1F	.	.	.	.	.	.	1c	-rens	-tis	-di	-o	-ter	0f	-rens	-tis	-di	-o	-ter	1A	-rens	-tis	-di	-o	-ter
=15-	=15-	=15-	=15-	=15-	=15-	=15-	=15-	=15-	=15-	=15-	=15-	=15-	=15-	=15-	=15-	=15-	=15-	=15-	=15-	=15-	=15-	=15-	=15-	=15-
0C	X 4	ho-	ul-	frau-	No-	Te	0c	ho-	ul-	frau-	No-	Te	.	.	.	.	.	.	0G	ho-	ul-	frau-	No-	Te
.	.	.	.	.	.	.	.	.	.	.	.	.	1f	ho-	ul-	frau-	No-	Te	.	.	.	.	.	.
1C	X 3	-mi-	-ce-	-di-	-mi-	o-	1c	-mi-	-ce-	-di-	-mi-	o-	1e	-mi-	-ce-	-di-	-mi-	o-	1G	-mi-	-ce-	-di-	-mi-	o-
=16-	=16-	=16-	=16-	=16-	=16-	=16-	=16-	=16-	=16-	=16-	=16-	=16-	=16-	=16-	=16-	=16-	=16-	=16-	=16-	=16-	=16-	=16-	=16-	=16-
0.FF;>	.	-num.	-re.	-bus	-ne	-rat.	0.c;>	-num.	-re.	-bus	-ne	-rat.	0.f;>	-num.	-re.	-bus.	-ne.	-rat.	0.A	-num.	-re.	-bus.	-ne	-rat.
!LO:TX:b:i:t=Repetat.	!	!	!	!	!	!	!	!	!	!	!	!	!	!	!	!	!	!	!	!	!	!	!	!
=:|!-	=:|!-	=:|!-	=:|!-	=:|!-	=:|!-	=:|!-	=:|!-	=:|!-	=:|!-	=:|!-	=:|!-	=:|!-	=:|!-	=:|!-	=:|!-	=:|!-	=:|!-	=:|!-	=:|!-	=:|!-	=:|!-	=:|!-	=:|!-	=:|!-
*-	*-	*-	*-	*-	*-	*-	*-	*-	*-	*-	*-	*-	*-	*-	*-	*-	*-	*-	*-	*-	*-	*-	*-	*-
!!!system-decoration: [(s1,s2,s3,s4)]
!!!RDF**kern: > = above
!!!RDF**kern: < = below
!!!EED: Antoni Szymański
!!!EEV: 2021-03-20
!!!ENC: Tomasz Grochalski
!!!END: 2021-03-05
